X:3375
T:Norrlandsfärger - Renskalad förstadel
R:Polkett
M:2/4
L:1/4
K:Bb
|: vDD | FB, | DD | C2 | uCC | FA, | CC | B,2 | vDD | FB, | DD | C2 | uDD | CC | B,A, | G,2 :|
(:musicend:)



(:music:)
